images/ah-to-go.svg

<svg xmlns="http://www.w3.org/2000/svg" width="638" height="404" viewBox="0 0 638 404">
  <g fill="none" fill-rule="evenodd">
    <path fill="#4293F7" fill-rule="nonzero" d="M108.4925,273.85 C98.5925,273.85 90.0125,270.77 82.9725,264.83 C75.7125,258.67 72.1925,250.75 72.1925,241.07 L72.1925,240.19 C72.1925,224.57 81.6525,215.55 94.1925,211.15 C102.9925,207.85 111.1325,206.75 120.3725,206.75 L130.9325,206.75 C136.6525,206.75 139.5125,203.89 139.5125,199.27 C139.5125,191.57 133.3525,185.63 122.3525,185.63 C112.6725,185.63 105.1925,191.35 102.7725,200.59 L74.6125,194.21 C75.9325,186.73 79.0125,180.35 84.0725,175.07 C88.9125,169.79 94.8525,165.83 101.8925,163.41 C108.7125,160.99 115.9725,159.67 123.8925,159.67 C150.9525,159.45 170.9725,174.85 170.9725,203.89 L170.9725,254.05 C170.9725,260.65 171.4125,266.59 171.8525,271.65 L142.1525,271.65 C141.7125,268.79 141.4925,264.39 141.4925,258.01 L141.0525,258.01 C133.5725,268.35 122.7925,273.85 108.4925,273.85 Z M117.7325,250.53 C124.3325,250.53 129.6125,248.33 133.5725,244.15 C137.5325,240.19 139.5125,235.13 139.5125,229.41 L139.5125,226.77 L120.3725,226.77 C116.4125,226.77 112.8925,227.87 109.5925,230.07 C106.0725,232.27 104.3125,235.35 104.3125,239.31 C104.3125,246.57 110.2525,250.53 117.7325,250.53 Z M301.8725,271.65 L269.9725,271.65 L269.9725,210.93 C269.9725,198.39 263.5925,189.59 251.0525,189.59 C244.4525,189.59 239.6125,191.57 236.3125,195.75 C233.0125,199.93 231.2525,204.77 231.2525,210.71 L231.2525,271.65 L199.3525,271.65 L199.3525,104.89 L231.2525,104.89 L231.2525,175.07 L231.4725,175.07 C235.8725,169.13 242.0325,164.73 247.9725,162.75 C253.9125,160.77 258.0925,160.11 261.6125,160.11 C275.0325,160.11 285.8125,165.17 292.1925,173.53 C298.5725,181.67 301.8725,192.01 301.8725,203.67 L301.8725,271.65 Z"/>
    <circle cx="462.188" cy="202" r="112.2" fill="#4293F7"/>
    <path fill="#FFF" fill-rule="nonzero" d="M435.382205,147.46577 L435.382205,198.56 L418.653845,198.56 L418.653845,147.46577 L399.925355,147.46577 L399.925355,132.282965 L454.110695,132.282965 L454.110695,147.46577 L435.382205,147.46577 Z M463.13636,165.376025 C463.13636,159.10289 464.681915,153.375245 467.86394,148.102175 C470.95505,142.829105 475.228055,138.647015 480.501125,135.64682 C485.86511,132.646625 491.68367,131.191985 497.956805,131.191985 C504.22994,131.191985 510.0485,132.646625 515.32157,135.64682 C520.503725,138.5561 524.685815,142.647275 527.776925,147.920345 C530.868035,153.1025 532.41359,158.92106 532.41359,165.194195 C532.41359,169.921775 531.50444,174.37661 529.68614,178.649615 C527.776925,182.92262 525.413135,186.55922 522.322025,189.559415 C519.14,192.650525 515.5034,195.10523 511.230395,196.832615 C506.95739,198.650915 502.502555,199.560065 497.774975,199.560065 C491.410925,199.560065 485.68328,198.105425 480.41021,195.014315 C475.046225,192.105035 470.95505,188.01386 467.773025,182.74079 C464.681915,177.46772 463.13636,171.740075 463.13636,165.376025 Z M480.22838,165.28511 C480.22838,170.285435 481.86485,174.649355 485.31962,178.37687 C488.683475,182.01347 492.865565,183.922685 497.774975,183.922685 C502.7753,183.922685 506.95739,182.01347 510.321245,178.37687 C513.6851,174.649355 515.412485,170.285435 515.412485,165.28511 C515.594315,155.64812 507.68471,146.55662 497.774975,146.73845 C494.59295,146.73845 491.50184,147.6476 488.77439,149.374985 C486.04694,151.10237 483.955895,153.375245 482.501255,156.19361 C480.9557,159.011975 480.22838,162.01217 480.22838,165.28511 Z M421.230292,235.434915 L457.778122,235.434915 L457.778122,241.980795 C457.778122,250.43589 454.596097,258.163665 449.141197,263.70948 C443.777212,269.255295 435.594862,272.710065 426.139702,272.710065 C419.684737,272.710065 413.775262,271.255425 408.411277,268.25523 C403.138207,265.34595 399.047032,261.254775 396.046837,256.07262 C392.955727,250.79955 391.501087,244.98099 391.501087,238.526025 C391.501087,233.980275 392.410237,229.616355 394.228537,225.34335 C396.046837,221.252175 398.410627,217.615575 401.501737,214.43355 C404.683762,211.34244 408.320362,208.97865 412.593367,207.069435 C416.957287,205.251135 421.412122,204.341985 426.139702,204.341985 C433.321987,204.341985 439.776952,206.2512 444.140872,208.97865 C446.322832,210.43329 448.322962,212.06976 450.050347,213.978975 C453.505117,217.70649 455.414332,221.34309 456.505312,225.16152 L440.231527,229.434525 C439.776952,227.434395 438.504142,225.34335 436.322182,223.070475 C434.140222,220.97943 430.412707,219.433875 425.957872,219.433875 C420.957547,219.433875 416.775457,221.252175 413.320687,224.79786 C409.956832,228.343545 408.320362,232.889295 408.320362,238.43511 C408.320362,243.799095 409.956832,248.43576 413.320687,252.163275 C416.593627,255.799875 420.957547,257.70909 426.139702,257.70909 C429.503557,257.70909 432.503752,256.890855 435.231202,255.16347 C437.958652,253.527 439.686037,251.435955 440.322442,248.890335 L421.230292,248.890335 L421.230292,235.434915 Z M463.687597,238.526025 C463.687597,232.25289 465.233152,226.525245 468.415177,221.252175 C471.506287,215.979105 475.779292,211.797015 481.052362,208.79682 C486.416347,205.796625 492.234907,204.341985 498.508042,204.341985 C504.781177,204.341985 510.599737,205.796625 515.872807,208.79682 C521.054962,211.7061 525.237052,215.797275 528.328162,221.070345 C531.419272,226.2525 532.964827,232.07106 532.964827,238.344195 C532.964827,243.071775 532.055677,247.52661 530.237377,251.799615 C528.328162,256.07262 525.964372,259.70922 522.873262,262.709415 C519.691237,265.800525 516.054637,268.25523 511.781632,269.982615 C507.508627,271.800915 503.053792,272.710065 498.326212,272.710065 C491.962162,272.710065 486.234517,271.255425 480.961447,268.164315 C475.597462,265.255035 471.506287,261.16386 468.324262,255.89079 C465.233152,250.61772 463.687597,244.890075 463.687597,238.526025 Z M480.779617,238.43511 C480.779617,243.435435 482.416087,247.799355 485.870857,251.52687 C489.234712,255.16347 493.416802,257.072685 498.326212,257.072685 C503.326537,257.072685 507.508627,255.16347 510.872482,251.52687 C514.236337,247.799355 515.963722,243.435435 515.963722,238.43511 C516.145552,228.79812 508.235947,219.70662 498.326212,219.88845 C495.144187,219.88845 492.053077,220.7976 489.325627,222.524985 C486.598177,224.25237 484.507132,226.525245 483.052492,229.34361 C481.506937,232.161975 480.779617,235.16217 480.779617,238.43511 Z"/>
  </g>
</svg>

<svg xmlns="http://www.w3.org/2000/svg" width="638" height="404" viewBox="0 0 638 404"><g fill="none" fill-rule="evenodd"><path fill="#4293F7" fill-rule="nonzero" d="M108.493 273.85c-9.9 0-18.48-3.08-25.52-9.02-7.26-6.16-10.78-14.08-10.78-23.76v-.88c0-15.62 9.46-24.64 22-29.04 8.8-3.3 16.94-4.4 26.18-4.4h10.56c5.72 0 8.58-2.86 8.58-7.48 0-7.7-6.16-13.64-17.16-13.64-9.68 0-17.16 5.72-19.58 14.96l-28.16-6.38c1.32-7.48 4.4-13.86 9.46-19.14 4.84-5.28 10.78-9.24 17.82-11.66 6.82-2.42 14.08-3.74 22-3.74 27.06-.22 47.08 15.18 47.08 44.22v50.16c0 6.6.44 12.54.88 17.6h-29.7c-.44-2.86-.66-7.26-.66-13.64h-.44c-7.48 10.34-18.26 15.84-32.56 15.84zm9.24-23.32c6.6 0 11.88-2.2 15.84-6.38 3.96-3.96 5.94-9.02 5.94-14.74v-2.64h-19.14c-3.96 0-7.48 1.1-10.78 3.3-3.52 2.2-5.28 5.28-5.28 9.24 0 7.26 5.94 11.22 13.42 11.22zm184.14 21.12h-31.9v-60.72c0-12.54-6.38-21.34-18.92-21.34-6.6 0-11.44 1.98-14.74 6.16-3.3 4.18-5.06 9.02-5.06 14.96v60.94h-31.9V104.89h31.9v70.18h.22c4.4-5.94 10.56-10.34 16.5-12.32 5.94-1.98 10.12-2.64 13.64-2.64 13.42 0 24.2 5.06 30.58 13.42 6.38 8.14 9.68 18.48 9.68 30.14v67.98z"/><circle cx="462.188" cy="202" r="112.2" fill="#4293F7"/><path fill="#FFF" fill-rule="nonzero" d="M435.382 147.466v51.094h-16.728v-51.094h-18.729v-15.183h54.186v15.183h-18.729zm27.754 17.91c0-6.273 1.546-12 4.728-17.274 3.091-5.273 7.364-9.455 12.637-12.455 5.364-3 11.183-4.455 17.456-4.455s12.091 1.455 17.365 4.455c5.182 2.91 9.364 7 12.455 12.273 3.091 5.183 4.637 11.001 4.637 17.274 0 4.728-.91 9.183-2.728 13.456-1.91 4.273-4.273 7.91-7.364 10.91-3.182 3.09-6.819 5.545-11.092 7.273-4.273 1.818-8.727 2.727-13.455 2.727-6.364 0-12.092-1.455-17.365-4.546-5.364-2.909-9.455-7-12.637-12.273-3.091-5.273-4.637-11-4.637-17.365zm17.092-.09c0 5 1.637 9.363 5.092 13.09 3.363 3.637 7.546 5.547 12.455 5.547 5 0 9.182-1.91 12.546-5.546 3.364-3.728 5.091-8.092 5.091-13.092.182-9.637-7.727-18.728-17.637-18.547-3.182 0-6.273.91-9 2.637-2.728 1.727-4.82 4-6.274 6.819-1.545 2.818-2.273 5.818-2.273 9.091zm-58.998 70.149h36.548v6.546c0 8.455-3.182 16.183-8.637 21.728-5.364 5.546-13.546 9.001-23.001 9.001-6.455 0-12.365-1.455-17.729-4.455-5.273-2.909-9.364-7-12.364-12.182-3.091-5.273-4.546-11.092-4.546-17.547 0-4.546.91-8.91 2.728-13.183 1.818-4.09 4.182-7.727 7.273-10.91 3.182-3.09 6.818-5.454 11.091-7.364 4.364-1.818 8.82-2.727 13.547-2.727 7.182 0 13.637 1.91 18 4.637 2.183 1.454 4.183 3.09 5.91 5 3.455 3.727 5.364 7.364 6.455 11.183l-16.273 4.273c-.455-2-1.728-4.092-3.91-6.365-2.182-2.09-5.91-3.636-10.364-3.636-5 0-9.183 1.818-12.637 5.364-3.364 3.546-5 8.091-5 13.637 0 5.364 1.636 10 5 13.728 3.273 3.637 7.637 5.546 12.819 5.546 3.364 0 6.364-.818 9.091-2.546 2.728-1.636 4.455-3.727 5.091-6.273H421.23v-13.455zm42.458 3.091c0-6.273 1.545-12 4.727-17.274 3.091-5.273 7.364-9.455 12.637-12.455 5.364-3 11.183-4.455 17.456-4.455s12.092 1.455 17.365 4.455c5.182 2.91 9.364 7 12.455 12.273 3.091 5.183 4.637 11.001 4.637 17.274 0 4.728-.91 9.183-2.728 13.456-1.909 4.273-4.273 7.91-7.364 10.91-3.182 3.09-6.818 5.545-11.091 7.273-4.273 1.818-8.728 2.727-13.456 2.727-6.364 0-12.091-1.455-17.365-4.546-5.364-2.909-9.455-7-12.637-12.273-3.09-5.273-4.636-11-4.636-17.365zm17.092-.09c0 5 1.636 9.363 5.09 13.09 3.365 3.637 7.547 5.547 12.456 5.547 5 0 9.183-1.91 12.546-5.546 3.364-3.728 5.092-8.092 5.092-13.092.182-9.637-7.728-18.728-17.638-18.547-3.182 0-6.273.91-9 2.637-2.728 1.727-4.819 4-6.274 6.819-1.545 2.818-2.272 5.818-2.272 9.091z"/></g></svg>
